X:1
T:047 - Alegria Perene
T:Letra: Samuel Medley (1738-1799)
T:Trad.: Salomão Luiz Ginsburg (1867-1927)
T:Música: Melodia americana
M:4/4
L:1/8
Q:1/4=108
K:G
V:1
D2 | "G"G2 G2 G3/2A/2 B3/2G/2 | "D"A2 A2 A2 Bc | "G"d3c BG dB | "G/D"G2 "D7"A2 "G"HG2 B3/2c/2 | d2 d2 d3/2c/2 B2 | "D7"c2 c2 c3/2B/2 Ac | "G"d3"D7"c "G"BG dB | "G/D"G2 "D7"A2 "G"G2 z2 || "D"A3B AF D2 | "D7"c3d cB AB/c/ | "G"d3c BG dB | "G/D"G2 "D7"A2 "G"HG2 |]
w: 1.~Des-per-tae can_ta_ com fer-vor, Sim,_ ó mi-nhaal__ma,a teu Se-nhor; Pois_ mui-tos e_ pre-cio-sos bens_ A_ ti tem da__do com a-mor.     Oh, que gran-dea-mor!    Oh, quei-men-soa-mor De_ Cris-to pe__lo pe-ca-dor!
w: 2.~Per-di-do, Cris_to_ meen-con-trou, E_ dis-pen-sou__me com-pai-xão; Por_ seu tão gran_dea-mor de pai_ Ti_rou-me des__ta con-di-ção.  
w: 3.~Eu sei queé mau_ meu_ co-ra-ção; Pro_pen-de sem__pre pa-rao mal, Mas_ e-leem paz_ me guar-da-rá_ Com_ seu a-mor,__ queé pe-re-nal.
W: 
W:
W: 1. Desperta e canta com fervor,
W: Sim, ó minha alma, a teu Senhor;
W: Pois muitos e preciosos bens
W: A ti tem dado com amor.
W: 
W:    (Estribilho)
W:    Oh, que grande amor!
W:    Oh, que imenso amor       
W:    De Cristo pelo pecador!
W: 
W: 
W: 
W: 2. Perdido, Cristo me encontrou,
W: E dispensou-me compaixão;
W: Por seu tão grande amor de pai
W: Tirou-me desta condição.
W: 
W: 3. Eu sei que é mau meu coração;
W: Propende sempre para o mal,
W: Mas ele em paz me guardará
W: Com seu amor, que é perenal.
W:         
W: 





%wordsfont Times-Roman 13.0
%vocalfont Times-Roman 13.0
